svg/s/LK.svg

<svg width="16" height="12" viewBox="0 0 16 12" fill="none" xmlns="http://www.w3.org/2000/svg">
<g clip-path="url(#clip0_270_55042)">
<rect width="16" height="12" fill="white"/>
<path fill-rule="evenodd" clip-rule="evenodd" d="M0 0H16V12H0V0Z" fill="#FECA00"/>
<rect x="1" y="1" width="3" height="10" fill="#1F8A6E"/>
<rect x="4" y="1" width="3" height="10" fill="#F56800"/>
<rect x="7" y="1" width="8" height="10" fill="#B01D00"/>
<path fill-rule="evenodd" clip-rule="evenodd" d="M8.47132 3C8.47132 3 7.82777 2.99813 7.82777 4.11869V5.76186C7.82777 5.76186 7.52142 5.81648 7.52142 6.00678C7.52142 6.19709 7.58635 6.36361 7.70706 6.36361C7.82777 6.36361 7.94849 6.92187 7.82777 6.92187C7.70706 6.92187 7.58635 7.16141 7.70706 7.16141C7.73594 7.16141 7.75791 7.15749 7.77463 7.15451C7.79221 7.15138 7.80397 7.14928 7.81184 7.15386C7.82777 7.16314 7.82777 7.19977 7.82777 7.31053C7.82777 7.52807 7.70706 7.61604 7.70706 7.61604C7.70706 7.61604 7.59338 7.58432 7.59338 7.71234C7.59338 7.84036 7.70706 7.87277 7.70706 7.87277C7.70706 7.87277 7.77215 7.90091 7.64679 7.96152C7.52142 8.02214 7.52142 8.05144 7.52142 8.05144H7.82777L7.9812 8.33215L8.1276 8.05144H8.43C8.43 8.05144 8.27773 7.95405 8.25987 7.93364C8.24202 7.91322 8.22043 7.88341 8.25987 7.84927C8.27137 7.83932 8.28822 7.83172 8.30631 7.82355C8.35024 7.80371 8.40153 7.78055 8.40153 7.71234C8.40153 7.61604 8.20851 7.61604 8.20851 7.61604C8.20851 7.61604 8.09072 7.40339 8.1276 7.31053C8.13791 7.28457 8.14379 7.26146 8.14883 7.24165C8.16182 7.1906 8.16925 7.16141 8.23258 7.16141C8.32049 7.16141 8.37095 7.05043 8.25987 6.92187C8.25987 6.92187 8.38719 7.05874 8.34978 7.23635C8.31237 7.41396 8.38868 7.4944 8.43 7.4944C8.47132 7.4944 8.53707 7.43333 8.53707 7.43333C8.53707 7.43333 8.88036 7.74027 9.03125 7.74027C9.18213 7.74027 9.39843 7.4944 9.39843 7.4944L9.70899 7.66882C9.70899 7.66882 9.93632 7.98727 9.90281 8.2062C9.8693 8.42513 9.73973 8.54712 9.58724 8.51327C9.43475 8.47942 9.18673 8.54888 9.16784 8.64331C9.16498 8.6576 9.16074 8.67501 9.15608 8.69412L9.15608 8.69413C9.12997 8.80131 9.09088 8.96175 9.21041 8.92217C9.35126 8.87552 9.37884 8.83974 9.37884 8.83974C9.37884 8.83974 9.36034 8.92217 9.47379 8.92217C9.58724 8.92217 9.62003 8.83974 9.62003 8.83974C9.62003 8.83974 9.73766 8.92217 9.82024 8.92217C9.90281 8.92217 9.99532 8.85866 9.99532 8.85866C9.99532 8.85866 10.0562 8.95301 10.1909 8.92217C10.3255 8.89132 10.4273 8.53988 10.3293 8.46114C10.3293 8.46114 10.6542 8.41402 10.7376 8.13165C10.7376 8.13165 10.4233 8.127 10.4557 7.93364C10.4881 7.74027 10.6541 7.61604 10.6541 7.61604C10.6541 7.61604 11.1319 7.38471 11.3375 7.31053C11.5431 7.23635 11.8848 7.16141 11.9695 7.16141C12.004 7.16141 12.0286 7.24185 12.0619 7.35088C12.1105 7.50977 12.1777 7.72938 12.321 7.84927C12.5627 8.05144 12.3979 8.51327 12.3979 8.51327C12.3979 8.51327 11.8601 8.56745 11.8601 8.71306C11.8601 8.85866 11.8688 8.92217 11.9695 8.92217C12.0702 8.92217 12.0682 8.83974 12.0682 8.83974C12.0682 8.83974 12.128 8.92217 12.2245 8.92217C12.321 8.92217 12.3979 8.83974 12.3979 8.83974C12.3979 8.83974 12.4236 8.92217 12.55 8.92217C12.6765 8.92217 12.6756 8.83974 12.6756 8.83974C12.6756 8.83974 12.6984 8.92217 12.8098 8.92217C12.9213 8.92217 13.1501 8.83974 13.1501 8.83974C13.1501 8.83974 13.1859 8.92217 13.3017 8.92217C13.4174 8.92217 13.4202 8.83974 13.4202 8.83974C13.4202 8.83974 13.482 8.92217 13.5822 8.92217C13.6825 8.92217 13.7413 8.83974 13.7413 8.83974C13.7413 8.83974 13.8854 8.92217 13.9849 8.92217C14.0843 8.92217 14.0486 8.77335 13.9849 8.64331C13.9687 8.61042 13.9501 8.58232 13.933 8.55665C13.8826 8.48083 13.8464 8.42624 13.9317 8.33215C13.9559 8.3055 13.9836 8.27857 14.0113 8.25161L14.0113 8.25159C14.1146 8.15107 14.2185 8.05002 14.1424 7.96152C14.1198 7.93526 14.0934 7.91688 14.0668 7.8984C13.9797 7.83789 13.891 7.77629 13.9317 7.43333C13.9561 7.22795 14.0024 7.06098 14.0455 6.90596L14.0455 6.90596L14.0455 6.90595C14.0963 6.72303 14.1424 6.55675 14.1424 6.36361C14.1424 6.00678 13.9317 5.59876 13.9317 5.59876C13.9317 5.59876 14.2154 5.40073 14.2154 4.9979C14.2154 4.59507 13.5822 4.55113 13.5822 4.55113C13.5822 4.55113 12.9533 4.71303 12.6756 4.63208C12.6129 4.61381 12.5605 4.60068 12.5169 4.58974C12.3671 4.55224 12.321 4.54069 12.321 4.43691C12.321 4.30287 12.1189 4.55113 12.1189 4.55113C12.1189 4.55113 11.9605 4.48754 12.0682 4.35596C12.1759 4.22438 12.2245 4.17279 12.2245 4.17279C12.2245 4.17279 12.1296 4.06458 11.9695 4.11869C11.8094 4.17279 11.7808 4.26245 11.7808 4.26245C11.7808 4.26245 11.5983 4.07559 11.712 3.93991C11.8258 3.80423 11.9695 3.93991 11.9695 3.93991C11.9695 3.93991 12.133 4.02529 12.1462 3.91322C12.1593 3.80115 12.1462 3.71179 12.1462 3.71179C12.1462 3.71179 12.5564 3.82945 12.4405 4.01247C12.3246 4.19549 12.3979 4.26245 12.3979 4.26245C12.3979 4.26245 12.6799 4.27981 12.7308 4.08529C12.7501 4.01173 12.7469 3.94038 12.7328 3.88431C12.8141 3.92258 12.9061 3.96793 12.8804 4.04315C12.8332 4.18136 12.7308 4.35596 12.7308 4.35596C12.7308 4.35596 13.0126 4.33949 13.0965 4.11869C13.1805 3.89788 13.1501 4.17279 13.1501 4.17279C13.1501 4.17279 13.2581 4.16895 13.4202 4.26245C13.5822 4.35596 13.4202 4.11869 13.4202 4.11869C13.4202 4.11869 13.7566 4.53583 14.0748 4.48637C14.393 4.43691 14.3754 4.17279 14.3754 4.17279C14.3754 4.17279 14.3 4.04315 14.1424 4.04315C13.9849 4.04315 14.0748 4.17279 14.0748 4.17279C14.0748 4.17279 14.2284 4.26029 13.9849 4.17279C13.9143 4.14745 13.809 4.06564 13.6784 3.96413C13.358 3.71516 12.8851 3.34768 12.3979 3.40396C11.712 3.48319 11.4727 3.78969 11.4727 3.78969V3.53448C11.4727 3.53448 11.3574 3.71179 11.25 3.71179C11.1425 3.71179 10.8442 3.53448 10.8442 3.53448L10.6541 3.71179C10.6541 3.71179 10.5821 3.53448 10.4557 3.53448C10.3293 3.53448 10.3293 3.71179 10.3293 3.71179C10.3293 3.71179 10.1704 3.63362 9.99532 3.63362C9.92359 3.63362 9.86258 3.60743 9.81554 3.58723C9.74776 3.55813 9.70899 3.54149 9.70899 3.63362C9.70899 3.65232 9.70943 3.67017 9.70985 3.68715C9.71291 3.81189 9.71482 3.88973 9.53332 3.91322C9.32711 3.93991 9.16784 3.93991 9.16784 3.93991C9.16784 3.93991 9.04441 3.78969 8.94837 3.78969C8.85233 3.78969 8.74108 3.90626 8.74108 4.01247C8.74108 4.11869 8.86549 4.4216 8.94837 4.48637C8.9702 4.50343 8.96615 4.50156 8.94834 4.49336C8.89853 4.47042 8.74108 4.3979 8.74108 4.55113C8.74108 4.65678 8.76745 4.68319 8.78671 4.70248C8.80537 4.72118 8.81735 4.73318 8.7922 4.80412C8.78173 4.83364 8.76736 4.86778 8.75236 4.90341C8.69411 5.04177 8.62641 5.20259 8.74108 5.20259C8.80301 5.20259 8.86159 5.18895 8.9033 5.17924C8.95874 5.16634 8.98436 5.16037 8.94837 5.20259C8.93403 5.21942 8.91473 5.23968 8.89527 5.26011C8.82915 5.32951 8.76113 5.40093 8.87886 5.34673C8.94075 5.31824 8.99302 5.27691 9.03612 5.24283C9.09914 5.19299 9.14256 5.15865 9.16784 5.20259C9.18383 5.23038 9.17102 5.26751 9.16004 5.29934C9.14178 5.35228 9.12858 5.39054 9.26129 5.34673C9.30782 5.33137 9.33506 5.3194 9.35021 5.31079C9.35085 5.31941 9.35795 5.33139 9.37884 5.34673C9.42338 5.37943 9.41485 5.4104 9.40833 5.43408C9.40095 5.46087 9.39614 5.47831 9.47379 5.47831C9.54809 5.47831 9.65295 5.42072 9.7151 5.38659C9.77528 5.35354 9.79541 5.34248 9.70899 5.42698C9.65453 5.48024 9.57575 5.51574 9.4883 5.55515C9.29367 5.64285 9.05613 5.74989 8.94837 6.11502C8.80292 6.60788 8.86811 6.70944 8.87774 6.72106L8.43 6.23086C8.43 6.23086 8.53707 6.14718 8.53707 6.00678C8.53707 5.86639 8.25987 5.76186 8.25987 5.76186C8.25987 5.76186 8.26955 4.01482 8.34978 3.63362C8.43 3.25243 8.47132 3 8.47132 3ZM9.36417 5.29429C9.35912 5.2943 9.34941 5.29981 9.35021 5.31079C9.36963 5.29977 9.36923 5.29428 9.36417 5.29429ZM12.7328 3.88431L12.7269 3.88152C12.6613 3.85069 12.6049 3.82416 12.6266 3.78969C12.6571 3.74125 12.7097 3.79213 12.7328 3.88431ZM13.0291 7.66462C13.0291 7.66462 12.8169 7.87272 12.9516 7.91846C12.9925 7.93233 13.0422 7.94006 13.0884 7.94726L13.0884 7.94726C13.1946 7.96377 13.2822 7.97742 13.2018 8.05599C13.0864 8.16877 12.9887 8.32113 12.9887 8.4599C12.9887 8.59867 12.992 8.71582 13.0291 8.65724C13.0495 8.62509 13.1333 8.59143 13.2235 8.55516C13.2977 8.52536 13.3762 8.49381 13.4276 8.4599C13.5245 8.39581 13.5231 8.32651 13.5206 8.20197C13.5202 8.18043 13.5197 8.15724 13.5197 8.13214C13.5197 7.96191 13.0291 7.66462 13.0291 7.66462ZM11.3829 4.87756C11.4323 4.83826 11.4355 4.35313 11.4355 4.35313C11.4355 4.35313 11.609 4.41089 11.609 4.48667C11.609 4.53386 11.5959 4.56086 11.576 4.6016C11.564 4.62628 11.5496 4.65601 11.5341 4.69832C11.496 4.80254 11.5997 4.86783 11.6961 4.92848C11.7034 4.93311 11.7107 4.9377 11.7179 4.94229C11.7832 4.98393 11.8016 4.89358 11.8157 4.82384C11.8236 4.78517 11.8302 4.75284 11.8427 4.75284C11.878 4.75284 12.1409 4.81245 12.3388 4.91301C12.5114 5.00074 12.6809 4.95767 13.0689 4.85902C13.1256 4.8446 13.1869 4.829 13.2537 4.81245C13.777 4.68261 13.8457 4.87756 13.8994 5.03105C13.953 5.18454 13.5467 5.39723 13.2537 5.43578C13.1249 5.45271 13.0134 5.44733 12.9107 5.44237C12.7798 5.43604 12.6634 5.43042 12.5443 5.47277C12.3576 5.53915 11.7737 5.53254 11.5458 5.52996C11.5143 5.52961 11.4896 5.52933 11.4737 5.52933C11.3691 5.52933 11.3493 5.4963 11.3096 5.43003C11.2995 5.41319 11.2881 5.3942 11.2737 5.37307C11.2027 5.26876 11.2889 5.20055 11.3447 5.20055C11.4005 5.20055 11.3829 5.07846 11.3447 5.03105C11.3065 4.98365 11.3334 4.91687 11.3829 4.87756Z" fill="#FECA00"/>
<rect x="6" y="1" width="1" height="10" fill="#E8AA00"/>
<path fill-rule="evenodd" clip-rule="evenodd" d="M7.08561 1.06116V1.24168C7.08561 1.26391 7.07601 1.29423 7.06526 1.32821C7.03118 1.43594 6.98543 1.5805 7.19659 1.62113C7.47436 1.67458 7.67898 1.79605 7.7412 1.91072C7.78107 1.98421 7.76984 1.86175 7.75662 1.71772V1.71772C7.74922 1.63701 7.7412 1.54952 7.7412 1.48594C7.7412 1.30892 7.54291 0.963966 7.4024 1.06116C7.26189 1.15836 7.08561 1.06116 7.08561 1.06116ZM7.08561 10.7537V10.9342C7.08561 10.9342 7.26189 10.837 7.4024 10.9342C7.54291 11.0314 7.7412 10.6864 7.7412 10.5094C7.7412 10.4458 7.74922 10.3583 7.75662 10.2776C7.76984 10.1336 7.78107 10.0111 7.7412 10.0846C7.67898 10.1993 7.47436 10.3208 7.19659 10.3742C6.98543 10.4148 7.03118 10.5594 7.06526 10.6671C7.07601 10.7011 7.08561 10.7314 7.08561 10.7537ZM14.9178 10.7537V10.9342C14.9178 10.9342 14.7415 10.837 14.601 10.9342C14.4605 11.0314 14.2622 10.6864 14.2622 10.5094C14.2622 10.4458 14.2542 10.3583 14.2468 10.2776L14.2468 10.2776C14.2336 10.1336 14.2224 10.0111 14.2622 10.0846C14.3244 10.1993 14.5291 10.3208 14.8068 10.3742C15.018 10.4148 14.9723 10.5594 14.9382 10.6671C14.9274 10.7011 14.9178 10.7314 14.9178 10.7537ZM14.9178 1.24168V1.06116C14.9178 1.06116 14.7415 1.15836 14.601 1.06116C14.4605 0.963966 14.2622 1.30892 14.2622 1.48594C14.2622 1.54952 14.2542 1.63701 14.2468 1.71772C14.2336 1.86175 14.2224 1.98421 14.2622 1.91072C14.3244 1.79605 14.5291 1.67458 14.8068 1.62113C15.018 1.5805 14.9723 1.43594 14.9382 1.32821C14.9274 1.29423 14.9178 1.26391 14.9178 1.24168Z" fill="#FECA00"/>
</g>
<defs>
<clipPath id="clip0_270_55042">
<rect width="16" height="12" fill="white"/>
</clipPath>
</defs>
</svg>

<svg width="16" height="12" fill="none" xmlns="http://www.w3.org/2000/svg">
  <mask id="a" maskUnits="userSpaceOnUse" x="0" y="0" width="16" height="12">
    <path fill="#fff" d="M0 0h16v12H0z"/>
  </mask>
  <g mask="url(#a)">
    <path fill-rule="evenodd" clip-rule="evenodd" d="M0 0h16v12H0V0z" fill="#FECA00"/>
    <path fill="#1F8A6E" d="M1 1h3v10H1z"/>
    <path fill="#F56800" d="M4 1h3v10H4z"/>
    <path fill="#B01D00" d="M7 1h8v10H7z"/>
    <path fill-rule="evenodd" clip-rule="evenodd" d="M8.471 3s-.643-.002-.643 1.119v1.643s-.307.054-.307.245c0 .19.065.357.186.357.12 0 .241.558.12.558-.12 0-.24.24-.12.24.029 0 .05-.005.068-.007.017-.004.029-.006.037-.001.016.01.016.046.016.157 0 .217-.12.305-.12.305s-.115-.032-.115.096.114.16.114.16.065.029-.06.09c-.126.06-.126.09-.126.09h.307l.153.28.147-.28h.302s-.152-.098-.17-.118c-.018-.02-.04-.05 0-.085.011-.01.028-.017.046-.025.044-.02.096-.043.096-.112 0-.096-.193-.096-.193-.096s-.118-.213-.081-.305a.534.534 0 00.02-.07c.014-.05.021-.08.085-.08.087 0 .138-.11.027-.24 0 0 .127.138.09.315-.038.178.039.258.08.258s.107-.06.107-.06.343.306.494.306c.151 0 .367-.246.367-.246l.311.175s.227.318.194.537c-.034.22-.163.341-.316.307-.152-.034-.4.036-.42.13a1.353 1.353 0 01-.01.051c-.027.107-.066.268.053.228.141-.046.169-.082.169-.082s-.019.082.095.082c.113 0 .146-.082.146-.082s.118.082.2.082c.083 0 .175-.063.175-.063s.061.094.196.063c.134-.03.236-.382.138-.46 0 0 .325-.048.409-.33 0 0-.315-.005-.282-.198.032-.194.198-.318.198-.318s.478-.231.684-.305c.205-.075.547-.15.632-.15.034 0 .059.08.092.19.049.159.116.378.259.498.242.202.077.664.077.664s-.538.054-.538.2c0 .146.009.21.11.21.1 0 .098-.083.098-.083s.06.082.157.082c.096 0 .173-.082.173-.082s.026.082.152.082c.127 0 .126-.082.126-.082s.022.082.134.082c.111 0 .34-.082.34-.082s.036.082.152.082c.115 0 .118-.082.118-.082s.062.082.162.082.16-.082.16-.082.143.082.243.082.064-.149 0-.279a.758.758 0 00-.052-.086c-.05-.076-.087-.13-.001-.225.024-.027.052-.053.08-.08.103-.1.207-.202.13-.29a.38.38 0 00-.075-.064c-.087-.06-.176-.122-.135-.465a3.35 3.35 0 01.114-.527c.05-.183.096-.35.096-.542 0-.357-.21-.765-.21-.765s.283-.198.283-.601c0-.403-.633-.447-.633-.447s-.629.162-.906.081c-.063-.018-.116-.031-.16-.042-.149-.038-.195-.05-.195-.153 0-.134-.202.114-.202.114s-.159-.063-.05-.195c.107-.132.155-.183.155-.183s-.094-.108-.255-.054c-.16.054-.188.143-.188.143s-.183-.186-.069-.322c.114-.136.258 0 .258 0s.163.085.176-.027c.013-.112 0-.201 0-.201s.41.117.294.3c-.115.183-.042.25-.042.25s.282.018.333-.177a.41.41 0 00.002-.2c.081.038.173.083.147.158-.047.138-.15.313-.15.313s.283-.017.367-.237c.084-.221.053.054.053.054s.108-.004.27.09c.162.093 0-.144 0-.144s.337.417.655.367c.318-.05.3-.313.3-.313s-.075-.13-.233-.13c-.157 0-.067.13-.067.13s.153.087-.09 0c-.07-.026-.176-.107-.307-.209-.32-.249-.793-.616-1.28-.56-.686.08-.925.386-.925.386v-.256s-.116.178-.223.178-.406-.178-.406-.178l-.19.178s-.072-.178-.198-.178c-.127 0-.127.178-.127.178s-.159-.078-.334-.078a.449.449 0 01-.18-.047c-.067-.029-.106-.046-.106.047v.053c.004.125.006.203-.176.226-.206.027-.365.027-.365.027s-.124-.15-.22-.15-.207.116-.207.222c0 .107.124.41.207.474.022.017.018.016 0 .007-.05-.023-.207-.095-.207.058 0 .106.026.132.046.151.018.02.03.031.005.102-.01.03-.025.064-.04.1-.058.138-.126.299-.01.299.061 0 .12-.014.161-.024.056-.013.081-.019.045.024a1.204 1.204 0 01-.053.057c-.066.07-.134.14-.016.087a.79.79 0 00.157-.104c.063-.05.107-.084.132-.04.016.027.003.065-.008.096-.018.053-.031.092.101.048a.524.524 0 00.09-.036c0 .008.007.02.028.036.044.032.036.063.03.087-.008.027-.013.044.065.044.074 0 .179-.057.241-.091.06-.033.08-.045-.006.04a.755.755 0 01-.22.128c-.195.088-.433.195-.54.56-.146.493-.08.594-.071.606l-.448-.49s.107-.084.107-.224-.277-.245-.277-.245.01-1.747.09-2.128c.08-.382.12-.634.12-.634zm.893 2.294a.015.015 0 00-.014.017c.02-.011.02-.017.014-.017zm3.369-1.41l-.006-.002c-.066-.031-.122-.058-.1-.092.03-.049.083.002.106.094zm.296 3.78s-.212.209-.077.254c.04.014.09.022.136.03.107.016.194.03.114.108-.116.113-.213.265-.213.404s.003.256.04.197c.02-.032.104-.066.194-.102.075-.03.153-.061.205-.095.096-.064.095-.133.093-.258l-.001-.07c0-.17-.49-.467-.49-.467zm-1.646-2.786c.05-.04.053-.525.053-.525s.173.058.173.134a.232.232 0 01-.033.115.961.961 0 00-.042.096c-.038.105.066.17.162.23l.022.014c.065.042.084-.048.098-.118.008-.039.014-.071.027-.071.035 0 .298.06.496.16.172.088.342.045.73-.054l.185-.047c.523-.13.592.066.645.219.054.154-.352.366-.645.405-.13.017-.24.011-.343.006a.92.92 0 00-.367.03c-.186.067-.77.06-.998.058h-.072c-.105 0-.125-.034-.164-.1a1.114 1.114 0 00-.036-.057c-.071-.104.015-.172.07-.172.056 0 .039-.123 0-.17-.037-.047-.01-.114.039-.153z" fill="#FECA00"/>
    <path fill="#E8AA00" d="M6 1h1v10H6z"/>
    <path fill-rule="evenodd" clip-rule="evenodd" d="M7.086 1.061v.18c0 .023-.01.053-.02.087-.035.108-.08.252.13.293.278.054.483.175.545.29.04.073.029-.05.016-.193a2.871 2.871 0 01-.016-.232c0-.177-.198-.522-.339-.425-.14.097-.316 0-.316 0zm0 9.693v.18s.176-.097.316 0 .34-.248.34-.425c0-.063.007-.15.015-.231.013-.144.024-.267-.016-.193-.062.114-.267.236-.544.29-.212.04-.166.184-.132.292a.32.32 0 01.02.087zm7.832 0v.18s-.176-.097-.317 0c-.14.097-.339-.248-.339-.425a2.87 2.87 0 00-.015-.231c-.013-.144-.025-.267.015-.193.062.114.267.236.545.29.211.04.165.184.131.292a.334.334 0 00-.02.087zm0-9.512v-.18s-.176.096-.317 0c-.14-.098-.339.247-.339.424 0 .064-.008.151-.015.232-.013.144-.025.266.015.193.062-.115.267-.236.545-.29.211-.04.165-.185.131-.293a.334.334 0 01-.02-.086z" fill="#FECA00"/>
  </g>
</svg>
